app/dist/common/images/xinxing-ductile-ir.svg

<svg height="18" viewBox="0 0 18 18" width="18" xmlns="http://www.w3.org/2000/svg"><path d="m0 0h18v18h-18z" fill="#f0f3fa"/><path d="m6.89 8 1.61-3h-3.5zm4.22 2-1.61 3h3.5z" fill="#c81a24"/><path d="m13 5h-3.7l-4.3 8h3.7zm-1.14.53h-1.88l-.25.42v.42l-2.79 5.26-.44.26-.36.58h1.86l.28-.45v-.35l2.82-5.3.42-.23.35-.6z" fill="#0095da" fill-rule="evenodd"/></svg>

<!-- by TradingView --><svg width="18" height="18" viewBox="0 0 18 18" xmlns="http://www.w3.org/2000/svg"><path fill="#F0F3FA" d="M0 0h18v18H0z"/><path d="M6.89 8 8.5 5H5l1.89 3ZM11.11 10 9.5 13H13l-1.89-3Z" fill="#C81A24"/><path fill-rule="evenodd" d="M13 5H9.3L5 13h3.7L13 5Zm-1.14.53H9.98l-.25.42v.42l-2.79 5.26-.44.26-.36.58H8l.28-.45v-.35l2.82-5.3.42-.23.35-.6Z" fill="#0095DA"/></svg>
